X:1     %Music
T:The Battle of Harlow
T:Hind Horn
B:Milner D,Kaplan P, 1983,Songs of England,Ireland and Scotland,Oak,New York
F:http://www.folkinfo.org/songs
S:G Grieg, Folk Songs of the North East
M:6/8     %Meter
L:1/8     %
K:C
E |{E}G2 G E2 G |A2 A c2 {A}c |G2 G E2 G | A3 z 
w:As I cam in by Den-nie-deer An' doon by Neth-er-ha',
c c |G2 G E2 G |{G}A2 A G2 G |{G}A2 C C2 D | e3
w:There was fif-ty thou-sand Hie-land-men A-march-in' to Har-law.
E2 D |C2 A, A,3 |C2 C A,3 |G,2 G, C D2 | C3-C2  |]
w:lWi' my dir-rum doo, dir-rum-doo, dad-die dir-run dey. 